32x32/apps/alacarte.svg

<svg xmlns="http://www.w3.org/2000/svg" width="32" height="32" version="1.1">
 <path style="opacity:0.2" d="M 5.2820512,2.000198 H 27.717949 C 28.428205,2.000198 29,2.5696337 29,3.2795123 V 25.844395 c 0,0.709948 -0.571795,1.155803 -1.282051,1.155803 H 13.027778 L 10.25,30.5 7.4722222,27.000198 H 5.2820512 C 4.5717949,27.000198 4,26.554343 4,25.844395 V 3.2795123 C 4,2.5696337 4.5717949,2.000198 5.2820512,2.000198 Z"/>
 <path style="fill:#f4f4f7" d="M 5.2820512,1 H 27.717949 C 28.428205,1 29,1.5694357 29,2.2793143 V 24.844197 C 29,25.554145 28.428205,26 27.717949,26 H 13.027778 L 10.25,29.499802 7.4722222,26 H 5.2820512 C 4.5717949,26 4,25.554145 4,24.844197 V 2.2793143 C 4,1.5694357 4.5717949,1 5.2820512,1 Z"/>
 <path style="opacity:0.1" d="M 7.5488281,5.99985 C 7.2516796,5.99985 7,6.2515282 7,6.5486781 V 8.4510219 C 7,8.7481719 7.2516796,8.99985 7.5488281,8.99985 H 9.4511719 C 9.7483204,8.99985 10,8.7481719 10,8.4510219 V 6.5486781 C 10,6.2515282 9.7483204,5.99985 9.4511719,5.99985 Z m 6.9511719,0 a 1.50015,1.50015 0 1 0 0,3 h 10 a 1.50015,1.50015 0 1 0 0,-3 z m -6.9511719,14 C 7.2516796,19.99985 7,20.251528 7,20.548678 v 1.902344 c 0,0.297149 0.2516796,0.548828 0.5488281,0.548828 H 9.4511719 C 9.7483201,22.99985 10,22.748171 10,22.451022 V 20.548678 C 10,20.251528 9.7483201,19.99985 9.4511719,19.99985 Z m 6.9511719,0 a 1.50015,1.50015 0 1 0 0,3 h 10 a 1.50015,1.50015 0 1 0 0,-3 z"/>
 <rect style="fill:#00c7c5" width="25" height="7" x="4" y="10"/>
 <path style="opacity:0.2" d="M 7.5488281,12.99985 C 7.2516796,12.99985 7,13.251528 7,13.548678 v 1.902344 c 0,0.297151 0.2516796,0.548828 0.5488281,0.548828 H 9.4511719 C 9.7483201,15.99985 10,15.748173 10,15.451022 V 13.548678 C 10,13.251528 9.7483201,12.99985 9.4511719,12.99985 Z m 6.9511719,0 a 1.50015,1.50015 0 1 0 0,3 h 10 a 1.50015,1.50015 0 1 0 0,-3 z"/>
 <path style="fill:#f4f4f7" d="M 7.5478517,12.000001 C 7.2507032,12.000001 7,12.252167 7,12.549317 v 1.902831 C 7,14.749299 7.2507032,15 7.5478517,15 H 9.4521482 C 9.7492964,15 10,14.749299 10,14.452148 v -1.902831 c 0,-0.29715 -0.2507036,-0.549316 -0.5478518,-0.549316 z"/>
 <path style="fill:#898989" d="M 7.5478517,5 C 7.2507032,5 7,5.2521665 7,5.5493164 v 1.9028318 c 0,0.29715 0.2507032,0.5478517 0.5478517,0.5478517 h 1.9042965 c 0.2971485,0 0.5478515,-0.2507017 0.5478515,-0.5478517 V 5.5493164 C 9.9999997,5.2521665 9.7492967,5 9.4521482,5 Z"/>
 <path style="fill:#f4f4f7;stroke:#f4f4f7;stroke-width:3;stroke-linecap:round" d="m 14.5,13.49985 h 10"/>
 <path style="fill:none;stroke:#898989;stroke-width:3;stroke-linecap:round" d="m 14.5,6.49985 h 10"/>
 <path style="fill:#898989" d="M 7.5478517,19 C 7.2507032,19 7,19.252166 7,19.549316 v 1.902832 C 7,21.749297 7.2507032,22 7.5478517,22 H 9.4521482 C 9.7492964,22 10,21.749297 10,21.452148 V 19.549316 C 10,19.252166 9.7492964,19 9.4521482,19 Z"/>
 <path style="fill:none;stroke:#898989;stroke-width:3;stroke-linecap:round" d="m 14.5,20.49985 h 10"/>
 <path style="fill:#f4f4f7;opacity:0.2" d="M 5.28125 1 C 4.5709937 1 4 1.5694183 4 2.2792969 L 4 3.2792969 C 4 2.5694183 4.5709937 2 5.28125 2 L 27.71875 2 C 28.429006 2 29 2.5694183 29 3.2792969 L 29 2.2792969 C 29 1.5694183 28.429006 1 27.71875 1 L 5.28125 1 z"/>
</svg>

<svg xmlns="http://www.w3.org/2000/svg" width="32" height="32"><path style="opacity:.2" d="M5.282 2h22.436C28.428 2 29 2.57 29 3.28v22.564c0 .71-.572 1.156-1.282 1.156h-14.69l-2.778 3.5L7.472 27h-2.19C4.572 27 4 26.554 4 25.844V3.28C4 2.57 4.572 2 5.282 2z"/><path style="fill:#f4f4f7" d="M5.282 1h22.436C28.428 1 29 1.57 29 2.28v22.564c0 .71-.572 1.156-1.282 1.156h-14.69l-2.778 3.5L7.472 26h-2.19C4.572 26 4 25.554 4 24.844V2.28C4 1.57 4.572 1 5.282 1z"/><path style="opacity:.1" d="M7.549 6A.557.557 0 0 0 7 6.549V8.45c0 .297.252.549.549.549H9.45A.557.557 0 0 0 10 8.45V6.549a.557.557 0 0 0-.549-.55zM14.5 6a1.5 1.5 0 1 0 0 3h10a1.5 1.5 0 1 0 0-3zM7.549 20a.557.557 0 0 0-.549.549v1.902c0 .297.252.549.549.549H9.45A.557.557 0 0 0 10 22.45v-1.902a.557.557 0 0 0-.549-.55zm6.951 0a1.5 1.5 0 1 0 0 3h10a1.5 1.5 0 1 0 0-3z"/><path style="fill:#00c7c5" d="M4 10h25v7H4z"/><path style="opacity:.2" d="M7.549 13a.557.557 0 0 0-.549.549v1.902c0 .297.252.549.549.549H9.45A.557.557 0 0 0 10 15.45v-1.902a.557.557 0 0 0-.549-.55zm6.951 0a1.5 1.5 0 1 0 0 3h10a1.5 1.5 0 1 0 0-3z"/><path style="fill:#f4f4f7" d="M7.548 12a.556.556 0 0 0-.548.55v1.902c0 .297.25.548.548.548h1.904c.297 0 .548-.25.548-.548V12.55c0-.297-.25-.549-.548-.549z"/><path style="fill:#898989" d="M7.548 5A.556.556 0 0 0 7 5.55v1.902c0 .297.25.548.548.548h1.904C9.75 8 10 7.75 10 7.452V5.55C10 5.252 9.75 5 9.452 5z"/><path style="fill:#f4f4f7;stroke:#f4f4f7;stroke-width:3;stroke-linecap:round" d="M14.5 13.5h10"/><path style="fill:none;stroke:#898989;stroke-width:3;stroke-linecap:round" d="M14.5 6.5h10"/><path style="fill:#898989" d="M7.548 19a.556.556 0 0 0-.548.55v1.902c0 .297.25.548.548.548h1.904c.297 0 .548-.25.548-.548V19.55c0-.297-.25-.549-.548-.549z"/><path style="fill:none;stroke:#898989;stroke-width:3;stroke-linecap:round" d="M14.5 20.5h10"/><path style="fill:#f4f4f7;opacity:.2" d="M5.281 1C4.571 1 4 1.57 4 2.28v1C4 2.57 4.571 2 5.281 2H27.72C28.429 2 29 2.57 29 3.28v-1C29 1.57 28.429 1 27.719 1H5.28z"/></svg>
